src/assets/icons/sprite-mono.svg

<svg xmlns="http://www.w3.org/2000/svg">
  <symbol id="account" xmlns="http://www.w3.org/2000/svg" viewBox="0 0 26 26">
    <path d="M23.804 21.3281C22.4115 18.8842 20.2372 16.98 17.631 15.9219C18.927 14.9499 19.8844 13.5948 20.3674 12.0484C20.8504 10.5021 20.8347 8.84296 20.3224 7.30607C19.8101 5.76917 18.8272 4.43242 17.513 3.48517C16.1988 2.53792 14.6198 2.0282 12.9998 2.0282C11.3797 2.0282 9.80076 2.53792 8.48652 3.48517C7.17229 4.43242 6.1894 5.76917 5.67711 7.30607C5.16481 8.84296 5.14906 10.5021 5.6321 12.0484C6.11514 13.5948 7.07248 14.9499 8.36851 15.9219C5.76233 16.98 3.588 18.8842 2.19554 21.3281C2.10925 21.4669 2.05175 21.6215 2.02643 21.7829C2.00112 21.9443 2.00852 22.1092 2.04819 22.2677C2.08786 22.4262 2.15899 22.5751 2.25736 22.7055C2.35572 22.836 2.47931 22.9453 2.62077 23.027C2.76224 23.1088 2.91869 23.1612 3.08084 23.1813C3.24298 23.2013 3.4075 23.1886 3.56462 23.1438C3.72174 23.099 3.86824 23.0231 3.99543 22.9205C4.12262 22.818 4.22789 22.6909 4.30499 22.5469C6.1453 19.3659 9.3953 17.4687 12.9998 17.4687C16.6042 17.4687 19.8542 19.3669 21.6945 22.5469C21.8616 22.8155 22.1266 23.0087 22.4335 23.0855C22.7404 23.1623 23.0652 23.1168 23.3391 22.9585C23.6131 22.8002 23.8148 22.5416 23.9015 22.2374C23.9882 21.9331 23.9533 21.6071 23.804 21.3281ZM7.7185 9.75C7.7185 8.70546 8.02824 7.68439 8.60856 6.81589C9.18887 5.94739 10.0137 5.27048 10.9787 4.87076C11.9437 4.47103 13.0056 4.36644 14.0301 4.57022C15.0545 4.774 15.9956 5.27699 16.7342 6.01559C17.4728 6.75418 17.9757 7.69521 18.1795 8.71967C18.3833 9.74414 18.2787 10.806 17.879 11.771C17.4793 12.7361 16.8024 13.5609 15.9339 14.1412C15.0654 14.7215 14.0443 15.0312 12.9998 15.0312C11.5996 15.0296 10.2572 14.4727 9.26713 13.4826C8.27705 12.4925 7.72012 11.1502 7.7185 9.75Z"/>
  </symbol>

  <symbol id="telegram" xmlns="http://www.w3.org/2000/svg" viewBox="0 0 26 26">
    <path fill-rule="evenodd" clip-rule="evenodd" d="M25.0475 4.86065C25.0999 4.54574 25.0661 4.22266 24.9496 3.9251C24.8331 3.62753 24.6381 3.36636 24.3851 3.16879C24.132 2.97123 23.8301 2.8445 23.5108 2.80181C23.1915 2.75911 22.8665 2.80202 22.5696 2.92606L2.03011 11.4925C0.598358 12.0898 0.525089 14.141 2.03011 14.7596C3.52059 15.3748 5.03257 15.9375 6.56321 16.4468C7.96614 16.906 9.49639 17.3308 10.7228 17.4509C11.0579 17.8483 11.4795 18.2314 11.9095 18.5812C12.5665 19.1166 13.3568 19.6675 14.1736 20.1958C15.8096 21.2547 17.6245 22.2672 18.8472 22.9263C20.309 23.7116 22.0591 22.8073 22.3209 21.2285L25.0475 4.86065ZM4.3327 13.1142L22.4987 5.53764L19.9547 20.8144C18.7548 20.1684 17.0263 19.2011 15.4865 18.2041C14.7768 17.7527 14.0916 17.2646 13.4337 16.7418C13.2579 16.5995 13.0872 16.4511 12.922 16.2968L17.6797 11.5853C17.9051 11.3622 18.0318 11.0596 18.0319 10.744C18.032 10.4283 17.9056 10.1256 17.6803 9.90236C17.4551 9.6791 17.1496 9.55362 16.831 9.55351C16.5123 9.5534 16.2067 9.67867 15.9813 9.90176L10.772 15.0618C9.89036 14.95 8.6628 14.6264 7.31512 14.1862C6.31183 13.855 5.31773 13.4972 4.3339 13.113L4.3327 13.1142Z"/>
  </symbol>

  <symbol id="menu-open" xmlns="http://www.w3.org/2000/svg" viewBox="0 0 16 16">
    <path d="M6.30526 1H1.89895C1.41263 1 1 1.39789 1 1.89895V6.30526C1 6.79158 1.39789 7.20421 1.89895 7.20421H6.30526C6.79158 7.20421 7.20421 6.80632 7.20421 6.30526V1.89895C7.20421 1.39789 6.79158 1 6.30526 1Z"/>
    <path d="M14.1011 1H9.69478C9.20847 1 8.79584 1.39789 8.79584 1.89895V6.30526C8.79584 6.79158 9.19373 7.20421 9.69478 7.20421H14.1011C14.5874 7.20421 15 6.80632 15 6.30526V1.89895C15 1.39789 14.6022 1 14.1011 1Z"/>
    <path d="M6.30526 8.79578H1.89895C1.41263 8.79578 1 9.19367 1 9.69472V14.101C1 14.5874 1.39789 15 1.89895 15H6.30526C6.79158 15 7.20421 14.6021 7.20421 14.101V9.69472C7.20421 9.20841 6.79158 8.79578 6.30526 8.79578Z"/>
    <path d="M14.1011 8.79578H9.69478C9.20847 8.79578 8.79584 9.19367 8.79584 9.69472V14.101C8.79584 14.5874 9.19373 15 9.69478 15H14.1011C14.5874 15 15 14.6021 15 14.101V9.69472C15 9.20841 14.6022 8.79578 14.1011 8.79578Z"/>
  </symbol>

  <symbol id="menu-close" xmlns="http://www.w3.org/2000/svg" viewBox="0 0 16 16">
    <path d="M3.88267 2.4213L8 6.53863L12.096 2.44263C12.1865 2.34633 12.2955 2.2693 12.4164 2.21614C12.5374 2.16299 12.6679 2.13481 12.8 2.1333C13.0829 2.1333 13.3542 2.24568 13.5543 2.44572C13.7543 2.64576 13.8667 2.91707 13.8667 3.19997C13.8692 3.33074 13.8449 3.46065 13.7954 3.58171C13.7458 3.70277 13.6721 3.81243 13.5787 3.90397L9.42934 7.99997L13.5787 12.1493C13.7545 12.3213 13.8576 12.5542 13.8667 12.8C13.8667 13.0829 13.7543 13.3542 13.5543 13.5542C13.3542 13.7543 13.0829 13.8666 12.8 13.8666C12.6641 13.8723 12.5284 13.8496 12.4017 13.8C12.275 13.7504 12.16 13.675 12.064 13.5786L8 9.4613L3.89334 13.568C3.80321 13.6611 3.69554 13.7354 3.57654 13.7866C3.45754 13.8379 3.32957 13.8651 3.2 13.8666C2.91711 13.8666 2.6458 13.7543 2.44576 13.5542C2.24572 13.3542 2.13334 13.0829 2.13334 12.8C2.13085 12.6692 2.15511 12.5393 2.20464 12.4182C2.25416 12.2972 2.3279 12.1875 2.42134 12.096L6.57067 7.99997L2.42134 3.85063C2.24553 3.67864 2.14245 3.44574 2.13334 3.19997C2.13334 2.91707 2.24572 2.64576 2.44576 2.44572C2.6458 2.24568 2.91711 2.1333 3.2 2.1333C3.456 2.1365 3.70134 2.23997 3.88267 2.4213Z"/>
  </symbol>
</svg>

<svg xmlns="http://www.w3.org/2000/svg" xmlns:xlink="http://www.w3.org/1999/xlink"><symbol id="icon-account" viewBox="0 0 26 26"><path d="M23.804 21.328a12.53 12.53 0 00-6.173-5.406 7.718 7.718 0 10-9.262 0 12.529 12.529 0 00-6.173 5.406 1.22 1.22 0 102.109 1.219c1.84-3.181 5.09-5.078 8.695-5.078 3.604 0 6.854 1.898 8.695 5.078a1.219 1.219 0 002.109-1.219zM7.719 9.75a5.281 5.281 0 115.28 5.281A5.287 5.287 0 017.72 9.75z"/></symbol><symbol id="icon-menu-close" viewBox="0 0 16 16"><path d="M3.883 2.421L8 6.54l4.096-4.096a.982.982 0 01.704-.31 1.067 1.067 0 01.995 1.449.962.962 0 01-.216.322L9.429 8l4.15 4.15a.96.96 0 01.288.65 1.067 1.067 0 01-1.067 1.067.98.98 0 01-.736-.288L8 9.46l-4.107 4.107a.98.98 0 01-.693.299 1.066 1.066 0 01-.995-1.449.96.96 0 01.216-.322L6.571 8 2.42 3.85a.96.96 0 01-.288-.65A1.067 1.067 0 013.2 2.133a.984.984 0 01.683.288z"/></symbol><symbol id="icon-menu-open" viewBox="0 0 16 16"><path d="M6.305 1H1.9A.903.903 0 001 1.899v4.406c0 .487.398.9.899.9h4.406a.903.903 0 00.9-.9V1.9a.903.903 0 00-.9-.899zM14.101 1H9.695a.903.903 0 00-.9.899v4.406c0 .487.399.9.9.9H14.1a.902.902 0 00.899-.9V1.9A.893.893 0 0014.101 1zM6.305 8.796H1.9A.903.903 0 001 9.695V14.1c0 .486.398.899.899.899h4.406a.903.903 0 00.9-.899V9.695a.912.912 0 00-.9-.9zM14.101 8.796H9.695a.903.903 0 00-.9.899V14.1c0 .486.399.899.9.899H14.1a.903.903 0 00.899-.899V9.695a.902.902 0 00-.899-.9z"/></symbol><symbol id="icon-telegram" viewBox="0 0 26 26"><path fill-rule="evenodd" clip-rule="evenodd" d="M25.047 4.86a1.769 1.769 0 00-.662-1.691 1.811 1.811 0 00-1.815-.243L2.03 11.492c-1.432.598-1.505 2.649 0 3.268a68.878 68.878 0 004.533 1.687c1.403.459 2.933.884 4.16 1.004.335.397.756.78 1.186 1.13.657.536 1.448 1.087 2.265 1.615 1.636 1.059 3.45 2.071 4.673 2.73a2.377 2.377 0 003.474-1.697L25.047 4.86zM4.334 13.115l18.166-7.576-2.544 15.276c-1.2-.646-2.929-1.613-4.468-2.61-.71-.451-1.395-.94-2.053-1.462a9.577 9.577 0 01-.512-.445l4.758-4.712a1.184 1.184 0 000-1.683 1.207 1.207 0 00-1.699 0l-5.209 5.16c-.882-.112-2.11-.436-3.457-.876a59.284 59.284 0 01-2.981-1.073l-.001.001z"/></symbol> <view id="icon-account-view" viewBox="0 0 26 26"/><view id="icon-menu-close-view" viewBox="0 36 16 16"/><view id="icon-menu-open-view" viewBox="0 62 16 16"/><view id="icon-telegram-view" viewBox="0 88 26 26"/> <use xlink:href="#icon-account" x="0" y="0" width="26" height="26"/><use xlink:href="#icon-menu-close" x="0" y="36" width="16" height="16"/><use xlink:href="#icon-menu-open" x="0" y="62" width="16" height="16"/><use xlink:href="#icon-telegram" x="0" y="88" width="26" height="26"/></svg>
